public/illustrations/_learn.svg

<svg width="283" height="168" viewBox="0 0 283 168" fill="none" xmlns="http://www.w3.org/2000/svg">
<path d="M1.72065 156.367C1.60738 149.104 1.47993 141.685 1.35251 134.28C1.09765 119.456 0.998516 104.759 0.885247 89.9213C0.800295 76.3573 0.72954 62.9491 0.658746 49.5267C0.602112 37.2512 0.233983 24.8767 0.035762 12.6154C0.0499207 10.619 -0.0775522 8.49508 0.0781931 6.4704C0.290573 2.73253 2.74005 0.693792 6.47793 0.906171C13.2033 1.00528 19.7871 1.13273 26.4983 1.10441C37.2164 1.10441 47.7645 0.991033 58.4827 0.991033L88.4566 0.863654C103.451 0.863654 118.459 0.863716 133.439 0.750447C152.864 0.750447 172.262 0.594585 191.532 0.452999C206.087 0.382206 220.812 0.424744 235.367 0.339792C249.058 0.240682 262.764 0.127427 276.597 0C280.887 0 282.968 1.72738 282.954 5.87585C283.039 14.0029 282.812 22.0307 282.756 30.1861C282.331 48.5214 282.062 66.8428 281.637 85.1782C281.099 107.959 280.561 130.882 280.023 153.663C279.981 155.532 279.782 157.26 279.896 159.114C280.349 164.622 276.554 167.27 271.57 167.369C268.002 167.411 264.42 167.312 260.838 167.227L193.825 165.995C179.652 165.741 165.324 165.358 151.137 165.089C134.246 164.764 117.241 164.735 100.336 164.41C84.5771 164.07 68.8185 163.744 53.074 163.404C39.6233 163.192 26.0311 162.994 12.5945 162.923L8.2902 162.781C4.14171 162.767 2.18785 160.884 1.8622 156.353H1.72065V156.367ZM272.59 10.6896L10.9096 11.61C11.391 51.8204 11.8441 91.7618 12.1697 131.845L25.3373 132.1C25.309 128.673 25.1956 125.686 25.3655 122.67C25.5638 118.791 28.0133 116.752 31.9919 116.653C34.6962 116.582 37.4146 116.653 40.0056 116.738C49.2937 116.794 58.4402 116.865 67.7425 116.907C72.4715 116.992 74.4536 119.017 74.9208 123.661C75.1049 125.063 75.02 126.507 75.0625 127.923C75.2465 129.325 75.3173 130.882 75.4164 132.737L269.801 135.908C270.678 94.0838 271.599 52.684 272.59 10.7038V10.6896ZM269.659 146.626L12.2688 142.251C12.2971 145.678 12.4245 148.807 12.4528 152.219C41.3648 152.658 69.8379 153.026 98.3251 153.522C126.812 154.017 155.469 154.64 184.07 154.98C212.67 155.32 240.945 156.282 269.517 156.339C269.631 152.899 269.659 149.897 269.631 146.471V146.612L269.659 146.626ZM36.1262 127.229C36.3669 129.056 36.2677 130.5 36.5226 132.312C46.0938 132.312 55.3253 132.963 64.67 132.425L64.5992 127.583L36.1262 127.229Z" fill="#102185"/>
<path d="M144.78 96.8022C143.859 97.3544 143.067 97.8925 142.401 98.2606C141.353 98.9685 139.952 99.1525 138.649 99.0392C137.332 98.7844 136.242 98.0764 135.378 97.0428C134.67 95.9951 134.203 94.6218 134.472 93.4466C134.586 92.144 135.138 90.9264 136.171 90.0769C137.814 88.4345 139.612 86.9054 141.424 85.5179C142.217 84.9798 142.953 84.1727 143.265 83.2665C143.718 82.3462 143.859 81.3269 143.732 80.3499C143.732 74.9272 144.114 69.3061 144.681 63.7984C144.95 60.4712 146.224 57.1722 148.319 54.6095C150.047 52.5282 152.425 51.0699 155.045 50.4328C157.678 49.7957 160.439 50.1496 162.86 51.2539C167.25 53.0946 169.43 57.6679 168.708 63.0482C167.745 69.7452 164.644 75.4368 160.779 80.8171C159.703 82.3887 158.301 83.7197 157.084 85.3054C156.234 86.424 154.323 87.1035 154.705 88.9016C155.073 91.705 155.852 94.3244 156.786 97.057C157.253 98.4162 158.641 98.0906 159.887 97.7932C162.492 97.0145 164.758 93.5741 164.63 90.445C164.375 85.3338 165.225 84.2293 169.869 82.6011C171.78 81.9215 173.493 80.8313 175.207 79.7552C178.76 77.4332 181.918 77.5749 183.688 80.1942C185.458 82.8135 184.452 85.9426 181.224 88.5195C180.941 88.5619 180.842 88.8593 180.559 88.8876C176.934 90.6574 175.193 93.6024 173.706 97.5101C172.701 100.639 170.789 103.471 168.198 105.524C165.607 107.577 162.336 108.724 159.08 108.88C153.544 109.191 149.495 106.586 146.974 101.63C146.21 100.158 145.445 98.6852 144.794 97.057L144.751 96.7739L144.78 96.8022ZM154.889 69.7452C156.531 67.0975 158.16 64.3082 157.423 60.8393C154.45 63.2321 155.045 66.5878 154.889 69.7452Z" fill="#102185"/>
<path d="M96.8383 100.455C95.026 101.842 93.0296 102.961 90.8775 103.966C88.3289 105.155 85.4831 105.255 82.7788 104.334C80.0745 103.414 77.979 101.545 76.6481 99.0106C74.765 95.5418 74.0854 91.4925 74.6942 87.5564C75.303 83.6203 77.1153 79.9532 80.0178 77.1357C82.3257 75.111 85.299 73.8651 88.3856 73.4545C91.4722 73.0439 94.5871 73.9217 97.2206 75.4225C98.6081 76.2437 100.024 77.1922 101.312 78.3108C102.119 79.0612 102.658 79.8399 103.068 80.7885C103.479 81.7371 103.606 82.7142 103.479 83.8752C103.365 87.3157 104.116 90.7845 105.404 94.0409C105.744 94.4232 106.084 94.8056 106.41 95.1879C108.123 94.0977 109.68 92.8941 111.408 91.9597C112.469 91.3933 113.574 91.096 114.735 91.2376C115.896 91.365 116.972 91.9455 117.807 92.8233C118.501 93.7295 118.912 94.6782 119.053 95.7968C119.195 96.9153 118.912 97.9629 118.317 98.8974C117.977 99.5204 117.482 100.157 117 100.78C114.494 103.4 111.153 105.127 107.684 105.878C105.999 106.104 104.3 106.189 102.785 105.524C101.143 105.028 99.8825 104.051 98.7073 102.777C98.0277 102.012 97.3622 101.248 96.6826 100.469H96.8242L96.8383 100.455ZM91.9252 84.9654C88.4988 83.8469 87.2671 84.3 86.0211 86.7494C84.407 89.6802 84.8884 92.1862 87.3095 94.2959C89.3625 91.45 90.9483 88.3776 92.0669 84.9512H91.9252V84.9654Z" fill="#102185"/>
<path d="M106.863 36.1326C100.874 36.2175 95.734 36.1892 90.5944 36.2883C82.0284 36.2883 73.4483 36.2883 64.8823 36.2883C54.4757 36.3874 44.1824 36.3307 33.7616 36.4299C32.9262 36.5431 32.0342 36.3732 31.0148 36.2174C29.8538 36.09 28.6361 35.5379 27.7866 34.5043C26.9512 33.6123 26.5124 32.3946 26.4982 31.2478C26.4699 29.9593 26.8804 28.7701 27.7724 27.9347C28.6361 26.9578 29.7122 26.3915 30.9723 26.2216C34.0589 25.811 37.0605 25.8393 40.2038 25.8534C58.1853 25.7543 76.195 25.7826 94.0349 25.6977C98.0418 25.7402 102.02 25.641 106.027 25.6694C107.146 25.5136 108.208 25.9525 109.142 26.5472C110.077 27.1418 110.912 28.0196 111.323 28.9682C111.719 29.7753 111.988 30.7381 111.818 31.6159C111.648 32.4937 111.337 33.3998 110.714 34.0511C109.567 35.0564 108.378 35.7927 107.033 36.4015L106.849 36.1326H106.863Z" fill="#102185"/>
<path d="M207.05 102.239C205.096 103.641 203.114 104.901 200.99 106.048C199.376 106.827 197.549 107.081 195.935 106.713C195.057 106.543 194.137 106.09 193.486 105.467C192.834 104.844 192.296 104.052 192.041 103.23C191.928 102.395 191.801 101.404 192.112 100.512C192.424 99.6199 192.891 98.8411 193.542 98.3172C194.165 97.6659 194.958 97.128 195.737 96.5899C197.294 95.3865 198.823 94.0414 200.381 92.8379C203.312 90.1619 205.889 86.962 207.842 83.4224C213.095 74.5874 224.394 76.7962 228.953 81.0438C230.072 81.8933 230.652 83.0967 230.836 84.5126C231.02 85.9285 230.624 87.2595 229.916 88.3497C228.33 90.4169 225.824 90.8982 222.936 89.5673C222.483 89.3408 222.001 88.9726 221.548 88.746C220.033 88.0947 218.362 87.316 216.847 88.8027C216.083 89.4823 215.616 90.2469 215.304 91.1531C214.993 92.0592 214.978 93.0504 215.262 94.0131C215.573 95.2591 216.295 96.4483 217.414 97.2979C218.532 98.1474 219.722 98.5579 221.166 98.657C223.743 98.742 226.362 97.9633 228.457 96.5474C229.25 96.0094 229.887 95.4998 230.85 95.2308C231.374 94.8768 232.054 94.6361 232.762 94.5512C233.47 94.4662 234.163 94.367 234.758 94.5652C235.494 94.7492 236.089 94.9616 236.585 95.4714C237.208 95.8112 237.561 96.3351 237.93 97.0006C238.298 97.666 238.524 98.204 238.609 98.912C238.694 99.6199 238.793 100.314 238.595 100.908C238.397 101.503 238.199 102.239 237.703 102.735C237.363 103.358 236.839 103.712 236.174 104.08C232.323 107.308 227.438 109.234 222.44 109.333C219.736 109.403 216.975 109.064 214.54 107.959C212.104 106.855 209.881 105.156 208.182 103.089C208.14 102.806 207.673 102.438 207.007 101.815L207.064 102.239H207.05Z" fill="#102185"/>
</svg>

<svg xmlns="http://www.w3.org/2000/svg" width="283" height="168" fill="none" viewBox="0 0 283 168"><path fill="#102185" d="M1.72 156.367c-.113-7.263-.24-14.682-.367-22.087-.255-14.824-.354-29.521-.468-44.359C.8 76.357.73 62.95.66 49.527.602 37.25.234 24.877.036 12.615.05 10.62-.078 8.495.078 6.47.291 2.733 2.74.694 6.478.906c6.725.1 13.31.227 20.02.198 10.718 0 21.266-.113 31.985-.113L88.457.864c14.994 0 30.002 0 44.982-.114 19.425 0 38.823-.155 58.093-.297 14.555-.07 29.28-.028 43.835-.113 13.691-.1 27.397-.213 41.23-.34 4.29 0 6.371 1.727 6.357 5.876.085 8.127-.142 16.155-.198 24.31-.425 18.335-.694 36.657-1.119 54.992-.538 22.781-1.076 45.704-1.614 68.485-.042 1.869-.241 3.597-.127 5.451.453 5.508-3.342 8.156-8.326 8.255-3.568.042-7.15-.057-10.732-.142l-67.013-1.232c-14.173-.254-28.501-.637-42.688-.906-16.891-.325-33.896-.354-50.801-.679-15.759-.34-31.517-.666-47.262-1.006-13.45-.212-27.043-.41-40.48-.481l-4.304-.142c-4.148-.014-6.102-1.897-6.428-6.428h-.141zM272.59 10.69l-261.68.92c.481 40.21.934 80.152 1.26 120.235l13.167.255c-.028-3.427-.141-6.414.029-9.43.198-3.879 2.647-5.918 6.626-6.017 2.704-.071 5.423 0 8.014.085 9.288.056 18.434.127 27.737.169 4.729.085 6.71 2.11 7.178 6.754.184 1.402.099 2.846.141 4.262.184 1.402.255 2.959.354 4.814l194.385 3.171c.877-41.824 1.798-83.224 2.789-125.204zm-2.931 135.936-257.39-4.375c.028 3.427.155 6.556.184 9.968 28.912.439 57.385.807 85.872 1.303s57.144 1.118 85.745 1.458c28.6.34 56.875 1.302 85.447 1.359.114-3.44.142-6.442.114-9.868v.141zM36.126 127.229c.24 1.827.142 3.271.397 5.083 9.57 0 18.802.651 28.147.113l-.07-4.842z"/><path fill="#102185" d="M144.78 96.802c-.921.552-1.713 1.09-2.379 1.459-1.048.708-2.449.892-3.752.778-1.317-.255-2.407-.963-3.271-1.996-.708-1.048-1.175-2.421-.906-3.596.114-1.303.666-2.52 1.699-3.37 1.643-1.642 3.441-3.172 5.253-4.56.793-.537 1.529-1.344 1.841-2.25.453-.92.594-1.94.467-2.917 0-5.423.382-11.044.949-16.552.269-3.327 1.543-6.626 3.638-9.189a12.63 12.63 0 0 1 6.726-4.176c2.633-.637 5.394-.283 7.815.82 4.39 1.842 6.57 6.415 5.848 11.795-.963 6.697-4.064 12.389-7.929 17.77-1.076 1.57-2.478 2.902-3.695 4.487-.85 1.119-2.761 1.798-2.379 3.597.368 2.803 1.147 5.422 2.081 8.155.467 1.36 1.855 1.034 3.101.736 2.605-.779 4.871-4.219 4.743-7.348-.255-5.111.595-6.216 5.239-7.844 1.911-.68 3.624-1.77 5.338-2.846 3.553-2.322 6.711-2.18 8.481.44s.764 5.748-2.464 8.325c-.283.042-.382.34-.665.368-3.625 1.77-5.366 4.714-6.853 8.622-1.005 3.129-2.917 5.961-5.508 8.014s-5.862 3.2-9.118 3.356c-5.536.311-9.585-2.294-12.106-7.25-.764-1.472-1.529-2.945-2.18-4.573l-.043-.283zm10.109-27.057c1.642-2.648 3.271-5.437 2.534-8.906-2.973 2.393-2.378 5.749-2.534 8.906M96.838 100.455c-1.812 1.387-3.808 2.506-5.96 3.511-2.55 1.189-5.395 1.289-8.1.368s-4.799-2.789-6.13-5.323c-1.883-3.47-2.563-7.518-1.954-11.455.609-3.936 2.421-7.603 5.324-10.42 2.308-2.025 5.281-3.27 8.368-3.681 3.086-.411 6.201.467 8.835 1.968 1.387.82 2.803 1.77 4.091 2.888a7.1 7.1 0 0 1 1.756 2.477c.411.95.538 1.926.411 3.087-.114 3.44.637 6.91 1.925 10.166.34.382.68.765 1.006 1.147 1.713-1.09 3.27-2.294 4.998-3.228 1.061-.567 2.166-.864 3.327-.722 1.161.127 2.237.707 3.072 1.585.694.907 1.105 1.855 1.246 2.974.142 1.118-.141 2.166-.736 3.1-.34.623-.835 1.26-1.317 1.883-2.506 2.62-5.847 4.347-9.316 5.098-1.685.226-3.384.311-4.899-.354-1.642-.496-2.903-1.473-4.078-2.747-.68-.765-1.345-1.529-2.024-2.308h.141zm-4.913-15.49c-3.426-1.118-4.658-.665-5.904 1.784-1.614 2.931-1.133 5.437 1.288 7.547a33.6 33.6 0 0 0 4.758-9.345h-.142zM106.863 36.133c-5.989.084-11.129.056-16.269.155H64.882c-10.406.1-20.7.043-31.12.142-.836.113-1.728-.057-2.747-.213-1.161-.127-2.379-.68-3.228-1.713-.836-.892-1.275-2.11-1.289-3.256-.028-1.289.382-2.478 1.274-3.313a5.06 5.06 0 0 1 3.2-1.713c3.087-.411 6.088-.383 9.232-.369 17.981-.099 35.991-.07 53.83-.155 4.008.042 7.986-.057 11.993-.029 1.119-.155 2.181.284 3.115.878s1.77 1.473 2.181 2.421c.396.807.665 1.77.495 2.648s-.481 1.784-1.104 2.435c-1.147 1.005-2.336 1.742-3.681 2.35l-.184-.268zM207.05 102.239a56 56 0 0 1-6.06 3.809c-1.614.779-3.441 1.033-5.055.665-.878-.17-1.798-.623-2.449-1.246-.652-.623-1.19-1.415-1.445-2.237-.113-.835-.24-1.826.071-2.718.312-.892.779-1.67 1.43-2.195.623-.651 1.416-1.189 2.195-1.727 1.557-1.204 3.086-2.549 4.644-3.752 2.931-2.676 5.508-5.876 7.461-9.416 5.253-8.835 16.552-6.626 21.111-2.378 1.119.85 1.699 2.053 1.883 3.469s-.212 2.746-.92 3.837c-1.586 2.067-4.092 2.548-6.98 1.217-.453-.226-.935-.594-1.388-.821-1.515-.651-3.186-1.43-4.701.057-.764.68-1.231 1.444-1.543 2.35a4.7 4.7 0 0 0-.042 2.86 5.92 5.92 0 0 0 2.152 3.285c1.118.85 2.308 1.26 3.752 1.359 2.577.085 5.196-.694 7.291-2.11.793-.538 1.43-1.047 2.393-1.316.524-.354 1.204-.595 1.912-.68s1.401-.184 1.996.014c.736.184 1.331.397 1.827.906.623.34.976.864 1.345 1.53.368.665.594 1.203.679 1.911s.184 1.402-.014 1.996-.396 1.331-.892 1.827c-.34.623-.864.977-1.529 1.345-3.851 3.228-8.736 5.154-13.734 5.253-2.704.07-5.465-.269-7.9-1.374a17.86 17.86 0 0 1-6.358-4.87c-.042-.283-.509-.651-1.175-1.274l.057.424z"/></svg>
